lib/brands/icons/ruby.svg

<svg xmlns="http://www.w3.org/2000/svg" fill="none" aria-hidden="true" viewBox="0 0 48 48"><g id="ruby-Icon"><g id="Group"><path id="Vector" fill="url(#paint0_linear_94_16899)" d="M33.8907 29.7453L13.3369 41.95L39.9502 40.1441L41.9999 13.3088L33.8907 29.7453Z"/><path id="Vector_2" fill="url(#paint1_linear_94_16899)" d="M39.9936 40.1258L37.7062 24.338L31.4756 32.5653L39.9936 40.1258Z"/><path id="Vector_3" fill="url(#paint2_linear_94_16899)" d="M40.025 40.1258L23.2671 38.8103L13.4263 41.9157L40.025 40.1258Z"/><path id="Vector_4" fill="url(#paint3_linear_94_16899)" d="M13.4496 41.9192L17.636 28.2045L8.42383 30.1743L13.4496 41.9192Z"/><path id="Vector_5" fill="url(#paint4_linear_94_16899)" d="M31.4743 32.6107L27.6223 17.5225L16.5986 27.8557L31.4743 32.6107Z"/><path id="Vector_6" fill="url(#paint5_linear_94_16899)" d="M41.1259 17.735L30.7054 9.22424L27.8037 18.6054L41.1259 17.735Z"/><path id="Vector_7" fill="url(#paint6_linear_94_16899)" d="M36.2531 6.18989L30.1244 9.57676L26.2578 6.14447L36.2531 6.18989Z"/><path id="Vector_8" fill="url(#paint7_linear_94_16899)" d="M6 34.7748L8.56741 30.0924L6.49059 24.5142L6 34.7748Z"/><path id="Vector_9" fill="white" d="M6.35254 24.338L8.44208 30.265L17.5216 28.228L27.8875 18.5943L30.8128 9.3024L26.2066 6.04999L18.3754 8.98079C15.9081 11.2756 11.1203 15.8163 10.9477 15.9017C10.7769 15.9889 7.78614 21.6416 6.35254 24.338Z"/><path id="Vector_10" fill="url(#paint8_linear_94_16899)" d="M13.6893 13.6904C19.0367 8.38843 25.9303 5.25594 28.5759 7.9251C31.2198 10.5943 28.416 17.0809 23.0686 22.3811C17.7212 27.6812 10.9129 30.9863 8.2692 28.3172C5.62367 25.6498 8.34188 18.9906 13.6893 13.6904Z"/><path id="Vector_11" fill="url(#paint9_linear_94_16899)" d="M13.4497 41.9137L17.6033 28.1555L31.3979 32.5871C26.4103 37.264 20.863 41.2178 13.4497 41.9137Z"/><path id="Vector_12" fill="url(#paint10_linear_94_16899)" d="M27.9058 18.5672L31.4471 32.5944C35.6134 28.2136 39.3528 23.504 41.1841 17.6787L27.9058 18.5672Z"/><path id="Vector_13" fill="url(#paint11_linear_94_16899)" d="M41.148 17.7496C42.5653 13.4724 42.8923 7.3364 36.2093 6.19714L30.7256 9.22606L41.148 17.7496Z"/><path id="Vector_14" fill="#9E1209" d="M6 34.713C6.19623 41.7721 11.2893 41.8773 13.4587 41.9393L8.44748 30.2359L6 34.713Z"/><path id="Vector_15" fill="url(#paint12_radial_94_16899)" d="M27.9253 18.589C31.1268 20.5568 37.5791 24.5088 37.71 24.5815C37.9133 24.6959 40.4918 20.2334 41.0768 17.7114L27.9253 18.589Z"/><path id="Vector_16" fill="url(#paint13_radial_94_16899)" d="M17.5977 28.1555L23.1504 38.8684C26.4337 37.0878 29.0047 34.9183 31.3595 32.5944L17.5977 28.1555Z"/><path id="Vector_17" fill="url(#paint14_linear_94_16899)" d="M8.42592 30.2504L7.63916 39.6188C9.12364 41.6466 11.1659 41.8228 13.3082 41.6648C11.7583 37.8073 8.66213 30.0942 8.42592 30.2504Z"/><path id="Vector_18" fill="url(#paint15_linear_94_16899)" d="M30.6929 9.24969L41.7238 10.7978C41.1351 8.30304 39.3272 6.69319 36.2456 6.18988L30.6929 9.24969Z"/></g></g><defs><linearGradient id="paint0_linear_94_16899" x1="37.6289" x2="30.0431" y1="45.2149" y2="31.8014" gradientUnits="userSpaceOnUse"><stop stop-color="#FB7655"/><stop offset="0.41" stop-color="#E42B1E"/><stop offset="0.99" stop-color="#990000"/><stop offset="1" stop-color="#990000"/></linearGradient><linearGradient id="paint1_linear_94_16899" x1="41.412" x2="30.7482" y1="33.9512" y2="31.8681" gradientUnits="userSpaceOnUse"><stop stop-color="#871101"/><stop offset="0.99" stop-color="#911209"/><stop offset="1" stop-color="#911209"/></linearGradient><linearGradient id="paint2_linear_94_16899" x1="33.5813" x2="33.4439" y1="45.6213" y2="38.8574" gradientUnits="userSpaceOnUse"><stop stop-color="#871101"/><stop offset="0.99" stop-color="#911209"/><stop offset="1" stop-color="#911209"/></linearGradient><linearGradient id="paint3_linear_94_16899" x1="13.031" x2="16.2017" y1="29.1967" y2="38.4938" gradientUnits="userSpaceOnUse"><stop stop-color="white"/><stop offset="0.23" stop-color="#E57252"/><stop offset="0.46" stop-color="#DE3B20"/><stop offset="0.99" stop-color="#A60003"/><stop offset="1" stop-color="#A60003"/></linearGradient><linearGradient id="paint4_linear_94_16899" x1="23.4674" x2="24.0425" y1="19.9891" y2="30.0519" gradientUnits="userSpaceOnUse"><stop stop-color="white"/><stop offset="0.23" stop-color="#E4714E"/><stop offset="0.56" stop-color="#BE1A0D"/><stop offset="0.99" stop-color="#A80D00"/><stop offset="1" stop-color="#A80D00"/></linearGradient><linearGradient id="paint5_linear_94_16899" x1="32.7283" x2="33.5692" y1="10.6871" y2="17.9955" gradientUnits="userSpaceOnUse"><stop stop-color="white"/><stop offset="0.18" stop-color="#E46342"/><stop offset="0.4" stop-color="#C82410"/><stop offset="0.99" stop-color="#A80D00"/><stop offset="1" stop-color="#A80D00"/></linearGradient><linearGradient id="paint6_linear_94_16899" x1="27.618" x2="28.8036" y1="8.14706" y2="3.11976" gradientUnits="userSpaceOnUse"><stop stop-color="white"/><stop offset="0.54" stop-color="#C81F11"/><stop offset="0.99" stop-color="#BF0905"/><stop offset="1" stop-color="#BF0905"/></linearGradient><linearGradient id="paint7_linear_94_16899" x1="6.70923" x2="9.80985" y1="26.6827" y2="28.6264" gradientUnits="userSpaceOnUse"><stop stop-color="white"/><stop offset="0.31" stop-color="#DE4024"/><stop offset="0.99" stop-color="#BF190B"/><stop offset="1" stop-color="#BF190B"/></linearGradient><linearGradient id="paint8_linear_94_16899" x1="2.62823" x2="30.491" y1="34.2323" y2="5.49987" gradientUnits="userSpaceOnUse"><stop stop-color="#BD0012"/><stop offset="0.07" stop-color="white"/><stop offset="0.17" stop-color="white"/><stop offset="0.27" stop-color="#C82F1C"/><stop offset="0.33" stop-color="#820C01"/><stop offset="0.46" stop-color="#A31601"/><stop offset="0.72" stop-color="#B31301"/><stop offset="0.99" stop-color="#E82609"/><stop offset="1" stop-color="#E82609"/></linearGradient><linearGradient id="paint9_linear_94_16899" x1="24.0018" x2="16.1168" y1="37.1265" y2="33.8146" gradientUnits="userSpaceOnUse"><stop stop-color="#8C0C01"/><stop offset="0.54" stop-color="#990C00"/><stop offset="0.99" stop-color="#A80D0E"/><stop offset="1" stop-color="#A80D0E"/></linearGradient><linearGradient id="paint10_linear_94_16899" x1="38.4381" x2="30.316" y1="27.0389" y2="21.2697" gradientUnits="userSpaceOnUse"><stop stop-color="#7E110B"/><stop offset="0.99" stop-color="#9E0C00"/><stop offset="1" stop-color="#9E0C00"/></linearGradient><linearGradient id="paint11_linear_94_16899" x1="41.1814" x2="37.3618" y1="14.7601" y2="10.8827" gradientUnits="userSpaceOnUse"><stop stop-color="#79130D"/><stop offset="0.99" stop-color="#9E120B"/><stop offset="1" stop-color="#9E120B"/></linearGradient><radialGradient id="paint12_radial_94_16899" cx="0" cy="0" r="1" gradientTransform="matrix(9.14992 0 0 4.78119 32.134 20.475)" gradientUnits="userSpaceOnUse"><stop stop-color="#A80D00"/><stop offset="0.99" stop-color="#7E0E08"/><stop offset="1" stop-color="#7E0E08"/></radialGradient><radialGradient id="paint13_radial_94_16899" cx="0" cy="0" r="1" gradientTransform="matrix(12.1636 0 0 9.46878 19.462 32.533)" gradientUnits="userSpaceOnUse"><stop stop-color="#A30C00"/><stop offset="0.99" stop-color="#800E08"/><stop offset="1" stop-color="#800E08"/></radialGradient><linearGradient id="paint14_linear_94_16899" x1="10.8461" x2="3.99801" y1="41.9057" y2="36.2212" gradientUnits="userSpaceOnUse"><stop stop-color="#8B2114"/><stop offset="0.43" stop-color="#9E100A"/><stop offset="0.99" stop-color="#B3100C"/><stop offset="1" stop-color="#B3100C"/></linearGradient><linearGradient id="paint15_linear_94_16899" x1="34.0981" x2="36.0419" y1="7.83024" y2="12.7475" gradientUnits="userSpaceOnUse"><stop stop-color="#B31000"/><stop offset="0.44" stop-color="#910F08"/><stop offset="0.99" stop-color="#791C12"/><stop offset="1" stop-color="#791C12"/></linearGradient></defs></svg>

<svg xmlns="http://www.w3.org/2000/svg" fill="none" aria-hidden="true" viewBox="0 0 48 48"><path fill="url(#a)" d="M33.89 29.745 13.338 41.95l26.613-1.806L42 13.31l-8.11 16.436Z"/><path fill="url(#b)" d="m39.994 40.126-2.288-15.788-6.23 8.227 8.518 7.56Z"/><path fill="url(#c)" d="M40.025 40.126 23.267 38.81l-9.84 3.106 26.598-1.79Z"/><path fill="url(#d)" d="m13.45 41.92 4.186-13.716-9.212 1.97L13.45 41.92Z"/><path fill="url(#e)" d="m31.474 32.61-3.852-15.087L16.6 27.855l14.875 4.755Z"/><path fill="url(#f)" d="m41.126 17.735-10.42-8.51-2.902 9.38 13.322-.87Z"/><path fill="url(#g)" d="m36.253 6.19-6.129 3.387-3.866-3.433 9.995.046Z"/><path fill="url(#h)" d="m6 34.775 2.567-4.683-2.076-5.578L6 34.774Z"/><path fill="#fff" d="m6.353 24.338 2.09 5.927 9.079-2.037 10.366-9.634 2.925-9.292-4.606-3.252-7.832 2.93c-2.467 2.296-7.255 6.836-7.427 6.922-.171.087-3.162 5.74-4.595 8.436Z"/><path fill="url(#i)" d="M13.69 13.69c5.347-5.302 12.24-8.434 14.886-5.765 2.644 2.67-.16 9.156-5.507 14.456-5.348 5.3-12.156 8.605-14.8 5.936-2.645-2.667.073-9.326 5.42-14.627Z"/><path fill="url(#j)" d="m13.45 41.914 4.153-13.759 13.795 4.432c-4.988 4.677-10.535 8.63-17.948 9.327Z"/><path fill="url(#k)" d="m27.906 18.567 3.541 14.027c4.166-4.38 7.906-9.09 9.737-14.915l-13.278.888Z"/><path fill="url(#l)" d="M41.148 17.75c1.417-4.278 1.744-10.414-4.939-11.553l-5.483 3.03 10.422 8.523Z"/><path fill="#9E1209" d="M6 34.713c.196 7.06 5.29 7.164 7.459 7.226L8.447 30.236 6 34.713Z"/><path fill="url(#m)" d="M27.925 18.589c3.202 1.968 9.654 5.92 9.785 5.992.203.115 2.782-4.348 3.367-6.87l-13.152.878Z"/><path fill="url(#n)" d="m17.598 28.155 5.552 10.713c3.284-1.78 5.855-3.95 8.21-6.274l-13.762-4.439Z"/><path fill="url(#o)" d="m8.426 30.25-.787 9.369c1.485 2.028 3.527 2.204 5.67 2.046-1.55-3.858-4.647-11.57-4.883-11.415Z"/><path fill="url(#p)" d="m30.693 9.25 11.03 1.548c-.588-2.495-2.396-4.105-5.477-4.608l-5.553 3.06Z"/><defs><linearGradient id="a" x1="37.629" x2="30.043" y1="45.215" y2="31.801" gradientUnits="userSpaceOnUse"><stop stop-color="#FB7655"/><stop offset=".41" stop-color="#E42B1E"/><stop offset=".99" stop-color="#900"/><stop offset="1" stop-color="#900"/></linearGradient><linearGradient id="b" x1="41.412" x2="30.748" y1="33.951" y2="31.868" gradientUnits="userSpaceOnUse"><stop stop-color="#871101"/><stop offset=".99" stop-color="#911209"/><stop offset="1" stop-color="#911209"/></linearGradient><linearGradient id="c" x1="33.581" x2="33.444" y1="45.621" y2="38.857" gradientUnits="userSpaceOnUse"><stop stop-color="#871101"/><stop offset=".99" stop-color="#911209"/><stop offset="1" stop-color="#911209"/></linearGradient><linearGradient id="d" x1="13.031" x2="16.202" y1="29.197" y2="38.494" gradientUnits="userSpaceOnUse"><stop stop-color="#fff"/><stop offset=".23" stop-color="#E57252"/><stop offset=".46" stop-color="#DE3B20"/><stop offset=".99" stop-color="#A60003"/><stop offset="1" stop-color="#A60003"/></linearGradient><linearGradient id="e" x1="23.467" x2="24.043" y1="19.989" y2="30.052" gradientUnits="userSpaceOnUse"><stop stop-color="#fff"/><stop offset=".23" stop-color="#E4714E"/><stop offset=".56" stop-color="#BE1A0D"/><stop offset=".99" stop-color="#A80D00"/><stop offset="1" stop-color="#A80D00"/></linearGradient><linearGradient id="f" x1="32.728" x2="33.569" y1="10.687" y2="17.995" gradientUnits="userSpaceOnUse"><stop stop-color="#fff"/><stop offset=".18" stop-color="#E46342"/><stop offset=".4" stop-color="#C82410"/><stop offset=".99" stop-color="#A80D00"/><stop offset="1" stop-color="#A80D00"/></linearGradient><linearGradient id="g" x1="27.618" x2="28.804" y1="8.147" y2="3.12" gradientUnits="userSpaceOnUse"><stop stop-color="#fff"/><stop offset=".54" stop-color="#C81F11"/><stop offset=".99" stop-color="#BF0905"/><stop offset="1" stop-color="#BF0905"/></linearGradient><linearGradient id="h" x1="6.709" x2="9.81" y1="26.683" y2="28.626" gradientUnits="userSpaceOnUse"><stop stop-color="#fff"/><stop offset=".31" stop-color="#DE4024"/><stop offset=".99" stop-color="#BF190B"/><stop offset="1" stop-color="#BF190B"/></linearGradient><linearGradient id="i" x1="2.628" x2="30.491" y1="34.232" y2="5.5" gradientUnits="userSpaceOnUse"><stop stop-color="#BD0012"/><stop offset=".07" stop-color="#fff"/><stop offset=".17" stop-color="#fff"/><stop offset=".27" stop-color="#C82F1C"/><stop offset=".33" stop-color="#820C01"/><stop offset=".46" stop-color="#A31601"/><stop offset=".72" stop-color="#B31301"/><stop offset=".99" stop-color="#E82609"/><stop offset="1" stop-color="#E82609"/></linearGradient><linearGradient id="j" x1="24.002" x2="16.117" y1="37.127" y2="33.815" gradientUnits="userSpaceOnUse"><stop stop-color="#8C0C01"/><stop offset=".54" stop-color="#990C00"/><stop offset=".99" stop-color="#A80D0E"/><stop offset="1" stop-color="#A80D0E"/></linearGradient><linearGradient id="k" x1="38.438" x2="30.316" y1="27.039" y2="21.27" gradientUnits="userSpaceOnUse"><stop stop-color="#7E110B"/><stop offset=".99" stop-color="#9E0C00"/><stop offset="1" stop-color="#9E0C00"/></linearGradient><linearGradient id="l" x1="41.181" x2="37.362" y1="14.76" y2="10.883" gradientUnits="userSpaceOnUse"><stop stop-color="#79130D"/><stop offset=".99" stop-color="#9E120B"/><stop offset="1" stop-color="#9E120B"/></linearGradient><linearGradient id="o" x1="10.846" x2="3.998" y1="41.906" y2="36.221" gradientUnits="userSpaceOnUse"><stop stop-color="#8B2114"/><stop offset=".43" stop-color="#9E100A"/><stop offset=".99" stop-color="#B3100C"/><stop offset="1" stop-color="#B3100C"/></linearGradient><linearGradient id="p" x1="34.098" x2="36.042" y1="7.83" y2="12.748" gradientUnits="userSpaceOnUse"><stop stop-color="#B31000"/><stop offset=".44" stop-color="#910F08"/><stop offset=".99" stop-color="#791C12"/><stop offset="1" stop-color="#791C12"/></linearGradient><radialGradient id="m" cx="0" cy="0" r="1" gradientTransform="matrix(9.14992 0 0 4.78119 32.134 20.475)" gradientUnits="userSpaceOnUse"><stop stop-color="#A80D00"/><stop offset=".99" stop-color="#7E0E08"/><stop offset="1" stop-color="#7E0E08"/></radialGradient><radialGradient id="n" cx="0" cy="0" r="1" gradientTransform="matrix(12.1636 0 0 9.46878 19.462 32.533)" gradientUnits="userSpaceOnUse"><stop stop-color="#A30C00"/><stop offset=".99" stop-color="#800E08"/><stop offset="1" stop-color="#800E08"/></radialGradient></defs></svg>
